assets/icons/qvision/taxi_alert.svg

<svg width="24" height="24" viewBox="0 0 24 24" fill="none" xmlns="http://www.w3.org/2000/svg">
<g clip-path="url(#clip0_147_5646)">
<path d="M23 7.99999C22.9978 6.41239 22.456 4.87268 21.4636 3.63354C20.4711 2.39441 19.0869 1.52945 17.5381 1.18062C15.9893 0.831791 14.3679 1.01981 12.94 1.71382C11.5121 2.40783 10.3626 3.56661 9.68 4.99999H7V6.99999H4.5C4.18761 6.99951 3.88286 7.09658 3.6283 7.27764C3.37373 7.45871 3.18205 7.71474 3.08 8.00999L1 14V22C1 22.2652 1.10536 22.5196 1.29289 22.7071C1.48043 22.8946 1.73478 23 2 23H3C3.26522 23 3.51957 22.8946 3.70711 22.7071C3.89464 22.5196 4 22.2652 4 22V21H16V22C16 22.2652 16.1054 22.5196 16.2929 22.7071C16.4804 22.8946 16.7348 23 17 23H18C18.2652 23 18.5196 22.8946 18.7071 22.7071C18.8946 22.5196 19 22.2652 19 22V14.32C20.1954 13.7516 21.2055 12.8565 21.9133 11.738C22.6212 10.6196 22.9979 9.32361 23 7.99999ZM4.5 8.49999H9.03C9.14474 10.2051 9.88551 11.8078 11.11 13H3L4.5 8.49999ZM4.5 18C4.10218 18 3.72064 17.842 3.43934 17.5606C3.15804 17.2793 3 16.8978 3 16.5C3 16.1022 3.15804 15.7206 3.43934 15.4393C3.72064 15.158 4.10218 15 4.5 15C4.89782 15 5.27936 15.158 5.56066 15.4393C5.84196 15.7206 6 16.1022 6 16.5C6 16.8978 5.84196 17.2793 5.56066 17.5606C5.27936 17.842 4.89782 18 4.5 18ZM15.5 18C15.1022 18 14.7206 17.842 14.4393 17.5606C14.158 17.2793 14 16.8978 14 16.5C14 16.1022 14.158 15.7206 14.4393 15.4393C14.7206 15.158 15.1022 15 15.5 15C15.8978 15 16.2794 15.158 16.5607 15.4393C16.842 15.7206 17 16.1022 17 16.5C17 16.8978 16.842 17.2793 16.5607 17.5606C16.2794 17.842 15.8978 18 15.5 18ZM18.43 12.37L18.22 12.48L18.04 12.57C17.9025 12.6296 17.7623 12.683 17.62 12.73L17.4 12.8L17.17 12.86L16.97 12.91C16.2866 13.0444 15.5826 13.0345 14.9032 12.881C14.2239 12.7274 13.5841 12.4337 13.0248 12.0185C12.4656 11.6033 11.9993 11.0758 11.6558 10.4699C11.3122 9.86405 11.0991 9.19306 11.03 8.49999C11.0097 8.3341 10.9997 8.16711 11 7.99999L11.02 7.52999L11.04 7.35999L11.08 7.07999L11.12 6.86999L11.17 6.65999L11.24 6.41999L11.29 6.28999C11.6857 5.18044 12.4612 4.24666 13.4792 3.65391C14.4972 3.06116 15.692 2.84767 16.8523 3.05123C18.0126 3.25479 19.0635 3.86226 19.8189 4.76614C20.5743 5.67002 20.9856 6.81201 20.98 7.98999C20.988 8.88189 20.7554 9.75946 20.3067 10.5303C19.8579 11.3011 19.2096 11.9366 18.43 12.37ZM15 3.99999H17V8.99999H15V3.99999ZM15 9.99999H17V12H15V9.99999Z" fill="#323232"/>
</g>
<defs>
<clipPath id="clip0_147_5646">
<rect width="24" height="24" fill="white"/>
</clipPath>
</defs>
</svg>

<svg xmlns="http://www.w3.org/2000/svg" height="24" viewBox="0 0 24 24" width="24"><path d="M0 0h24v24H0V0z" fill="none"/><path d="M23 8A7 7 0 0 0 9.68 5H7v2H4.5a1.5 1.5 0 0 0-1.42 1.01L1 14v8a1 1 0 0 0 1 1h1a1 1 0 0 0 1-1v-1h12v1a1 1 0 0 0 1 1h1a1 1 0 0 0 1-1v-7.68A7.01 7.01 0 0 0 23 8zm-18.5.5h4.53a6.93 6.93 0 0 0 2.08 4.5H3l1.5-4.5zm0 9.5a1.5 1.5 0 1 1 0-3 1.5 1.5 0 0 1 0 3zm11 0a1.5 1.5 0 1 1 0-3 1.5 1.5 0 0 1 0 3zm2.93-5.63l-.21.11-.18.09a4.97 4.97 0 0 1-.42.16l-.22.07-.23.06-.2.05a5 5 0 0 1-5.94-4.41A4.07 4.07 0 0 1 11 8l.02-.47.02-.17.04-.28.04-.21.05-.21.07-.24.05-.13a4.99 4.99 0 0 1 9.69 1.7 4.96 4.96 0 0 1-2.55 4.38zM15 4h2v5h-2zm0 6h2v2h-2z"/></svg>
